X:1
T:Groß sind die Wogen
T:Ernst Friedrich Richter
T:Friedrich Oser
T:Groß sind die Wogen
T:CPDL - Creative Commons Attribution Non Commercial 3.0
T:CPDL - Creative Commons Attribution Non Commercial 3.0
T:CPDL - Creative Commons Attribution Non Commercial 3.0
T:CPDL - Creative Commons Attribution Non Commercial 3.0
T:CPDL - Creative Commons Attribution Non Commercial 3.0
T:CPDL - Creative Commons Attribution Non Commercial 3.0
T:CPDL - Creative Commons Attribution Non Commercial 3.0
T:CPDL - Creative Commons Attribution Non Commercial 3.0
C:Ernst Friedrich Richter
Z:Friedrich Oser
Z:CPDL - Creative Commons Attribution Non Commercial 3.0
%%score [ 1 2 ( 3 4 ) ]
L:1/8
Q:1/4=120
M:4/4
K:Bb
V:1 treble nm="Sopran\n1" snm="\n"
V:2 treble nm="Sopran\n2"
V:3 treble nm="Alt"
V:4 treble 
V:1
"^Allegro maestoso"!f! F4 F2 F2 | B4 F2 G2 |!<(! _A4 G2!<)! d2 | !>!e4 z2 G2 | c4 G2 A2 | %5
w: Groß sind die|Wo- gen und|brau- sen gar|* die|Wo- gen und|
 B4 d2 d2 |!<(! =e4 e2!<)! e2 | !>!f4 !>!f4- |!>(! f4 =e2!>)! d2 | c4 z4 |!f! d4 c2!>(! B2!>)! | %11
w: brau- sen, und|brau- sen gar|sehr: Fürch-|* te dich|nicht,|fürch- te dich|
 A6 F2 |!<(! G4 G3!<)! B | B2 z2 B2 B>B | c4 c2 c>c | c2 c2 !>!f4 |!>(! e2 d2!>)! c4 | %17
w: nicht, dein|Fels ist der|Herr! fürch- te dich|nicht, fürch- te dich|nicht, dein Fels|ist der Herr!|
!f! d2 d>d B4 | e2 e>e c2 F2 | !>!B6 B2 | !>!d6!ff! B2 |[Q:1/4=120]"^rit." e4 B2 c2 | %22
w: Fürch- te dich nicht,|fürch- te dich nicht, dein|Fels, dein|Fels, dein|Fels ist der|
 !>!!fermata!d8 ||!p! F4!<(! F2 F2!<)! | B4 F2 G2 | _A3 A!>(! G4!>)! | G4 z4 | c4!<(! G2 A2!<)! | %28
w: Herr!|Nacht al- ler|En- den, kein|Ster- ne- lein|mehr,|Nacht al- ler|
 B4 B2 B2 | d3 d!>(! d4!>)! | ^c4 z4 |!f! f4!>(! =e2 d2!>)! | c4 z4 |!>(! d4 c2 B2!>)! | A6 F2 | %35
w: En- den, kein|Ster- ne- lein|mehr:|Fürch- te dich|nicht,|fürch- te dich|nicht, dein|
!<(! G4 G3!<)! B | B2 z2 B2 B>B | c4 c2 c>c | c2 c2 !>!f4 |!>(! e2 d2!>)! c4 |!f! d2 d>d B4 | %41
w: Licht ist der|Herr! Fürch- te dich|nicht, fürch- te dich|nicht, dein Licht|ist der Herr!|Fürch- te dich nicht,|
 e2 e>e c2 F2 | !>!B6 B2 | !>!d6 B2 |!ff! !>!e4[Q:1/4=120]"^rit." B2 c2 | !>!!fermata!d8 || %46
w: fürch- te dich nicht, dein|Licht, dein|Licht, dein|Licht ist der|Herr!|
!pp! F4 F2 F2 | B4 F2 G2 | !>!_A4 G2 G2 | G4 G2 =A2 | !>!B4!<(! B2 c2!<)! | d6 d2 |!f! d6 ^c2 | %53
w: Zit- ternd die|Knie- e, das|Kreuz, wie so|schwer, und das|Kreuz, und das|Kreuz, das|Kreuz so|
 ^c4 z4 |!p!!<(! f4 =e2!<)! d2 | c4 z4 |!<(! d4 c2!<)! B2 | A6 F2 |!<(! G4 G3!<)! B | %59
w: schwer:|Fürch- te dich|nicht,|fürch- te dich|nicht, dein|Stab ist der|
 B2 z2!f! B2 B>B | c4 c2 c>c | c2 c2 !>!f4 |!>(! e2 d2!>)! c4 |!f! d2 d>d B4 | e2 e>e c2 F2 | %65
w: Herr. Fürch- te dich|nicht, fürch- te dich|nicht, dein Stab|ist der Herr!|Fürch- te dich nicht,|fürch- te dich nicht, dein|
 !>!B6 B2 | !>!d6 B2 |"^sempre"!f! e4 e4 | d4 c2 B2 | f6 c2 | B8- | B6 B2 | !>!!fermata![Bd]8 |] %73
w: Stab, dein|Stab, dein|Stab, dein|Stab ist der|Herr, der|Herr,|_ der|Herr!|
V:2
!f! F4 F2 F2 | B4 F2 G2 |!<(! _A4 G2!<)! =B2 | !>!c4 z2 G2 | c4 G2 A2 | B4 d2 d2 | %6
w: Groß sind die|Wo- gen und|brau- sen gar|sehr, die|Wo- gen und|brau- sen, und|
!<(! d4 ^c2!<)! c2 | !>!d4 z4 |!f!!>(! A4 A2!>)! B2 | c4 z4 |!f! B4 G2!>(! G2!>)! | F6 z2 | z8 | %13
w: brau- sen gar|sehr:|Fürch- te dich|nicht,||||
!f!!<(! B2 B>B!<)! B4 | B2 B>B B2 B2 | A2 A2 !>!B4 |!>(! A2 B2!>)! A4 |!f! B2 B>B G4 | %18
w: fürch- te dich nicht,|fürch- te dich nicht, dein|Fels, dein Fels|ist der Herr!|Fürch- te dich nicht,|
 c2 c>c A2 F2 | !>!B6 B2 | !>!B6!ff! _A2 | G4 B2 B2 | !>!!fermata!B8 ||!p! F4!<(! F2 F2!<)! | %24
w: fürch- te dich nicht, dein|Fels, dein|Fels, dein|Fels ist der|Herr!|Nacht al- ler|
 B4 F2 G2 | _A3 A!>(! G4!>)! | G4 z4 | G4!<(! G2 G2!<)! | G4 G2 G2 | B3 B!>(! B4!>)! | A4 A4- | %31
w: En- den, kein|Ster- ne- lein|mehr,|Nacht al- ler|En- den, kein|Ster- ne- lein|mehr: Fürch-|
 A4!>(! A2 B2!>)! | c4 z4 |!>(! B4 G2 G2!>)! | F6 z2 | z8 | B2 B>B B4 | B2 B>B B2 B2 | %38
w: * te dich|nicht,||||Fürch- te dich nicht,|fürch- te dich nicht, dein|
 A2 A2 !>!B4 |!>(! A2 B2!>)! A4 |!f! B2 B>B G4 | c2 c>c A2 F2 | !>!B6 B2 | !>!B6 _A2 | %44
w: Licht, dein Licht|ist der Herr!|Fürch- te dich nicht,|fürch- te dich nicht, dein|Licht, dein|Licht, dein|
!ff! !>!G4 B2 B2 | !>!!fermata!B8 ||!pp! F4 F2 F2 | F4 F2 F2 | !>!F4 F2 F2 | E4 G2 G2 | %50
w: Licht ist der|Herr!|Zit- ternd die|Knie- e, das|Kreuz, wie so|schwer, und das|
 !>!G4!<(! G2 B2!<)! | B6 B2 |!f! B6 A2 | A4!p! A4- |!<(! A4 A2!<)! B2 | c4 z4 |!<(! B4 G2!<)! G2 | %57
w: Kreuz, und das|Kreuz, das|Kreuz so|schwer: Fürch-|* te dich|nicht,||
 F6 z2 | z8 |!f! B2 B>B B4 | B2 B>B B2 B2 | A2 A2 !>!B4 |!>(! A2 B2!>)! A4 |!f! B2 B>B G4 | %64
w: ||Fürch- te dich nicht,|fürch- te dich nicht, dein|Stab, dein Stab|ist der Herr!|Fürch- te dich nicht,|
 c2 c>c A2 F2 | !>!B6 B2 | !>!B6 B2 |"^sempre"!f! B4 B4 | B4 A2 B2 | B4 A4 | B4 _A4 | G4 E2 G2 | %72
w: fürch- te dich nicht, dein|Stab, dein|Stab, dein|Stab, dein|Stab ist der|Herr, der|Herr, dein|Stab ist der|
 !>!!fermata!F8 |] %73
w: Herr!|
V:3
!f! F4 F2 F2 | B4 F2 G2 |!<(! _A4 G2!<)! G2 | !>!G4 z2 G2 | c4 G2 A2 | B4 B2 B2 | %6
w: ||||||
!<(! B4 A2!<)! A2 | !>!A4 z4 |!f!!>(! F4 F2!>)! F2 | F4 !>!F4- |!>(! F4 =E2 E2 | F2!>)! F2 F4- | %12
w: |||* fürch-|* te dich|nicht, dein Fels|
!<(! F4 E3!<)! D | D2 z2!f! F2 F>F | G4 G2 G>G | F2 F2 !>!F4 |!>(! F2 F2!>)! F4- | %17
w: _ _ _|||||
 F2 z2!f! G2 G>G | G2 G2 F2 F2 | !>!B4 B2 A2 | !>!G6!ff! B2 | B4 G2 G2 | !>!!fermata!F8 || %23
w: ||||||
!p! F4!<(! F2 F2!<)! | B4 F2 G2 | _A3 A!>(! G4!>)! | E4 (E2 F2) | G4!<(! G2 E2!<)! | G4 G2 G2 | %29
w: ||||||
 G3 G!>(! G4!>)! | A4 z4 |!f! F4!>(! F2 F2!>)! | F4 !>!F4- |"^–" F4 =E2 E2 | F2!f! F2 F4- | %35
w: |||* fürch-|* te dich|nicht, dein Licht|
 F4 E3 D | D2 z2 F2 F>F | G4 G2 G>G | F2 F2 !>!F4 |!>(! F2 F2!>)! F4- | F2 z2!f! G2 G>G | %41
w: _ _ _||||||
 G2 G2 F2 F2 | !>!B4 B2 A2 | !>!G6 B2 |!ff! !>!B4 G2 G2 | !>!!fermata!F8 ||!pp! F4 E2 E2 | %47
w: ||||||
 _D4 D2 D2 | !>!C4 D2 D2 | C4 E2 E2 | !>!D4!<(! G2 G2!<)! | (F4 B2) A2 |!f! G6 =E2 | =E4 z4 | %54
w: |||||||
!p!!<(! F4 F2!<)! F2 | F4 F4- |"^–"!<(! F4 =E2!<)! E2 | F2 F2 F4- |!<(! F4 E3!<)! D | %59
w: |* fürch-|* te dich|nicht, dein Stab|_ _ _|
 D2 z2!f! F2 F>F | G4 G2 G>G | F2 F2 !>!F4 |!>(! F2 F2!>)! F4- | F2 z2!f! G2 G>G | G2 G2 F2 F2 | %65
w: ||||||
 !>!B4 B2 A2 | !>!G6 _A2 |"^sempre"!f! G4 G4 | F4 E2 E2 | D4 E4 | D4 D4 | E4 C2 E2 | %72
w: |||||||
 !>!!fermata!D8 |] %73
w: |
V:4
 F4 F2 F2 | B4 F2 G2 | _A4 G2 G2 | C4 x2 G2 | c4 G2 A2 | B4 B,2 B2 | G4 A2 A,2 | D4 x4 | %8
w: ||||||||
 D4 C2 B,2 | A,4 z4 | B,4 C2 C2 | D6 F2 | F4 E3 B, | B,2 x2 D2 D>D | E4 =E2 E>E | F2 _E2 D4 | %16
w: ||fürch- te dich|nicht, dein|Fels ist der|Herr! Fürch- te dich|nicht, fürch- te dich|nicht, dein Fels|
 C2 B,2 F2 F2 | B,2 x2 E2 E>E | C2 C2 F2 F2 | B4 B2 A2 | G6 F2 | E4 E2 E2 | B,8 || F4 F2 F2 | %24
w: ist der Herr, der|Herr! Fürch- te dich|nicht, dein Fels, dein|Fels ist der|Herr, dein|Fels ist der|Herr!|Nacht al- ler|
 B4 F2 G2 | _A3 A G4 | C4 (C2 D2) | E4 E2 C2 | G4 G2 G2 | G3 G G4 | A4 x4 | D4 C2 B,2 | A,4 z4 | %33
w: En- den, kein|Ster- ne- lein|mehr, Nacht, *|Nacht al- ler|En- den, kein|Ster- ne- lein|mehr,|Fürch- te dich|nicht,|
 B,4 C2 C2 | D6 F2 | F4 E3 B, | B,2 x2 D2 D>D | E4 =E2 E>E | F2 _E2 D4 | C2 B,2 F2 F2 | %40
w: fürch- te dich|nicht. dein|Licht ist der|Herr! Fürch- te dich|nicht, fürch- te dich|nicht, dein Licht|ist der Herr, der|
 B,2 x2 E2 E>E | C2 C2 F2 F2 | B4 B2 A2 | G6 F2 | E4 E2 E2 | B,8 || F4 E2 E2 | _D4 D2 D2 | %48
w: Herr! Fürch- te dich|nicht, dein Licht, dein|Licht ist der|Herr, dein|Licht ist der|Herr!|Zit- ternd die|Knie- e, das|
 C4 =B,2 B,2 | C4 C2 C2 | G,4 G2 G2 | F6 F2 | =E6 A,2 | A,4 x4 | D4 C2 B,2 | A,4 z4 | B,4 C2 C2 | %57
w: Kreuz, wie so|schwer, und das|Kreuz, und das|Kreuz, das|Kreuz so|schwer:|Fürch- te dich|nicht,|fürch- te dich|
 D6 F2 | F4 E3 B, | B,2 x2 D2 D>D | E4 =E2 E>E | F2 _E2 D4 | C2 B,2 F2 F2 | B,2 x2 E2 E>E | %64
w: nicht, dein|Stab ist der|Herr. Fürch- te dich|nicht, fürch- te dich|nicht, dein Stab|ist der Herr, der|Herr! Fürch- te dich|
 C2 C2 F2 F2 | B4 B2 A2 | G6 F2 | E4 C4 | F4 F2 F2 | F6 F2 | B,8- | B,6 B,2 | B,8 |] %73
w: nicht, dein Stab, dein|Stab ist der|Herr, dein|Stab, dein|Stab ist der|Herr, der|Herr,|_ der|Herr!|

